packages/icon-set-material/svg/main/workspaces-outline.svg

<svg xmlns="http://www.w3.org/2000/svg" viewBox="0 0 24 24"><path d="M6 20.625q-1.5 0-2.562-1.063Q2.375 18.5 2.375 17q0-1.5 1.063-2.562Q4.5 13.375 6 13.375q1.5 0 2.562 1.063Q9.625 15.5 9.625 17q0 1.5-1.063 2.562Q7.5 20.625 6 20.625Zm6-10q-1.5 0-2.562-1.063Q8.375 8.5 8.375 7q0-1.5 1.063-2.562Q10.5 3.375 12 3.375q1.5 0 2.562 1.063Q15.625 5.5 15.625 7q0 1.5-1.063 2.562Q13.5 10.625 12 10.625Zm6 10q-1.5 0-2.562-1.063Q14.375 18.5 14.375 17q0-1.5 1.063-2.562Q16.5 13.375 18 13.375q1.5 0 2.562 1.063Q21.625 15.5 21.625 17q0 1.5-1.063 2.562Q19.5 20.625 18 20.625Zm-6-11.5q.875 0 1.5-.625t.625-1.5q0-.875-.625-1.5T12 4.875q-.875 0-1.5.625T9.875 7q0 .875.625 1.5t1.5.625Zm-6 10q.875 0 1.5-.625t.625-1.5q0-.875-.625-1.5T6 14.875q-.875 0-1.5.625T3.875 17q0 .875.625 1.5t1.5.625Zm12 0q.875 0 1.5-.625t.625-1.5q0-.875-.625-1.5t-1.5-.625q-.875 0-1.5.625t-.625 1.5q0 .875.625 1.5t1.5.625ZM12 7ZM6 17Zm12 0Z"/></svg>

<svg xmlns="http://www.w3.org/2000/svg" viewBox="0 0 24 24"><path d="M6 20.625Q4.5 20.625 3.438 19.562Q2.375 18.5 2.375 17Q2.375 15.5 3.438 14.438Q4.5 13.375 6 13.375Q7.5 13.375 8.562 14.438Q9.625 15.5 9.625 17Q9.625 18.5 8.562 19.562Q7.5 20.625 6 20.625ZM12 10.625Q10.5 10.625 9.438 9.562Q8.375 8.5 8.375 7Q8.375 5.5 9.438 4.438Q10.5 3.375 12 3.375Q13.5 3.375 14.562 4.438Q15.625 5.5 15.625 7Q15.625 8.5 14.562 9.562Q13.5 10.625 12 10.625ZM18 20.625Q16.5 20.625 15.438 19.562Q14.375 18.5 14.375 17Q14.375 15.5 15.438 14.438Q16.5 13.375 18 13.375Q19.5 13.375 20.562 14.438Q21.625 15.5 21.625 17Q21.625 18.5 20.562 19.562Q19.5 20.625 18 20.625ZM12 9.125Q12.875 9.125 13.5 8.5Q14.125 7.875 14.125 7Q14.125 6.125 13.5 5.5Q12.875 4.875 12 4.875Q11.125 4.875 10.5 5.5Q9.875 6.125 9.875 7Q9.875 7.875 10.5 8.5Q11.125 9.125 12 9.125ZM6 19.125Q6.875 19.125 7.5 18.5Q8.125 17.875 8.125 17Q8.125 16.125 7.5 15.5Q6.875 14.875 6 14.875Q5.125 14.875 4.5 15.5Q3.875 16.125 3.875 17Q3.875 17.875 4.5 18.5Q5.125 19.125 6 19.125ZM18 19.125Q18.875 19.125 19.5 18.5Q20.125 17.875 20.125 17Q20.125 16.125 19.5 15.5Q18.875 14.875 18 14.875Q17.125 14.875 16.5 15.5Q15.875 16.125 15.875 17Q15.875 17.875 16.5 18.5Q17.125 19.125 18 19.125ZM12 7Q12 7 12 7Q12 7 12 7Q12 7 12 7Q12 7 12 7Q12 7 12 7Q12 7 12 7Q12 7 12 7Q12 7 12 7ZM6 17Q6 17 6 17Q6 17 6 17Q6 17 6 17Q6 17 6 17Q6 17 6 17Q6 17 6 17Q6 17 6 17Q6 17 6 17ZM18 17Q18 17 18 17Q18 17 18 17Q18 17 18 17Q18 17 18 17Q18 17 18 17Q18 17 18 17Q18 17 18 17Q18 17 18 17Z"/></svg>
